X:1
T: The Marquis of Huntly
P:Surenne version
R:Strathspey
Q: 128
K:D
M:4/4
L:1/16
|:A2|dd3 f3d g3e f3d|BB3 e3d cA3 A3c|dd3 f3d g3e f3d|B3e dcBA d6 A2|
dd3 f3d g3e f3d|BB3 e3d cA3 A3c|dd3 f3d g3e f3d|B3e dcBA d6 B2|
A3D FED2 A3B d3f|g3e f3d e3d B2d2|A3D FED2 A3B d3b|af3 e3f d6 B2|
A3D FED2 A3B d3f|g3e f3d e3d B2d2|A3D FED2 A3B d3b|af3 e3f d6:|
